X:6028
T:Gan Ainm 
R:Reel
S:
H:
N:
D:Irish Dancing Tape (P. Acc)
Z:Adrian Scahill
M:4/4
L:1/8
K:C
e^d (3ed=d (3cd^d eg|aged cAGE|CEGc eGgG|fGef dcAc|\
e^d (3ed=d (3cd^d eg|aged cAGE|CEGc edcA|GEDE C4:||\
c2ac gc (3ccc|Bc (3ccc aged|c2ac gc (3ccc|c'age d^de=d|\
c2 (3ccc acgc|(3ccc c'a ged^d|e^d (3e^d=d (3cd^d eg|aged cGAB:||


